!!!COM: Palestrina, Giovanni Perluigi da
!!!OPR: Ave regina coelorum
!!!OTL: Sanctus
**kern	**kern	**kern	**kern
*Ibass	*Itenor	*Icalto	*Icant
!Bassus	!Tenor	!Altus	!Cantus
*clefF4	*clefGv2	*clefG2	*clefG2
*k[]	*k[]	*k[]	*k[]
*C:ion	*C:ion	*C:ion	*C:ion
*M4/2	*M4/2	*M4/2	*M4/2
=1	=1	=1	=1
0r	1.f	0r	0r
.	4e	.	.
.	4d	.	.
=2	=2	=2	=2
1.c	1e	0r	0r
.	1c	.	.
4B	.	.	.
4A	.	.	.
=3	=3	=3	=3
1B	1d	0r	0r
1G	1e	.	.
=4	=4	=4	=4
1A	2f	0r	0r
.	2e	.	.
1B	1d	.	.
=5	=5	=5	=5
2.c	2e	0r	1.cc
.	1g	.	.
4B	.	.	.
1A	.	.	.
.	2f	.	4b
.	.	.	4a
=6	=6	=6	=6
1G	2e	1.g	1b
.	2d	.	.
1r	1e	.	1g
.	.	4f	.
.	.	4e	.
=7	=7	=7	=7
0r	1d	1f	1a
.	1G	1d	1b
=8	=8	=8	=8
0r	1r	1e	2cc
.	.	.	2b
.	1d	1f	2.a
.	.	.	4b
=9	=9	=9	=9
0r	2c	2.g	2cc
.	2B	.	2dd
.	.	4f	.
.	1c	2.e	2cc
.	.	.	[2ee
.	.	4d	.
=10	=10	=10	=10
0r	1A	1c	4ee]
.	.	.	4dd
.	.	.	1cc
.	1G	1d	.
.	.	.	2b
=11	=11	=11	=11
1.F	1c	1.a	[0cc
.	1r	.	.
4E	.	4g	.
4D	.	4f	.
=12	=12	=12	=12
1E	2r	1g	0cc]
.	1c	.	.
1C	.	1e	.
.	4B	.	.
.	4A	.	.
=13	=13	=13	=13
1D	1B	0r	0r
1E	1G	.	.
=14	=14	=14	=14
2.F	1A	2r	0r
.	.	1f	.
4E	.	.	.
1D	1B	.	.
.	.	4e	.
.	.	4d	.
=15	=15	=15	=15
1C	2.c	1e	2r
.	.	.	1cc
.	4B	.	.
1r	1A	1c	.
.	.	.	4b
.	.	.	4a
=16	=16	=16	=16
0r	1G	1d	1b
.	[1c	1e	1g
=17	=17	=17	=17
1.F	1c]	2.f	2a
.	.	.	1cc
.	.	4e	.
.	1r	1d	.
2G	.	.	2b
=18	=18	=18	=18
1A	2r	1c	4cc
.	.	.	4dd
.	1c	.	4ee
.	.	.	4ff
2A	.	2r	2ee
2B	2d	[2g	2dd
=19	=19	=19	=19
1c	1e	2g]	1cc
.	.	2a	.
1G	2d	1b	1r
.	2e	.	.
=20	=20	=20	=20
2.d	1.f	2a	0r
.	.	2b	.
4c	.	.	.
4A	.	[1cc	.
4B	.	.	.
2c	2e	.	.
=21	=21	=21	=21
1G	1d	2cc]	1r
.	.	2b	.
4F	1f	1a	2r
4G	.	.	.
4A	.	.	[2cc
4B	.	.	.
=22	=22	=22	=22
2c	2e	0g	2cc]
2B	2.d	.	2dd
1c	.	.	1ee
.	4c	.	.
.	[2c	.	.
=23	=23	=23	=23
1G	2c]	2r	1dd
.	2B	1g	.
1r	2c	.	2ee
.	2f	2a	[2ff
=24	=24	=24	=24
0r	2d	2b	2ff]
.	2e	1cc	2ee
.	2f	.	2dd
.	2g	2b	[2ee
=25	=25	=25	=25
2r	2e	2g	4ee]
.	.	.	4dd
1F	2f	2a	1cc
.	1d	2a	.
2G	.	4g	2b
.	.	4f	.
=26	=26	=26	=26
1A	2r	2e	1cc
.	2c	2cc	.
2G	2d	2b	1r
2A	[2f	2a	.
=27	=27	=27	=27
1.c	2f]	0g	2r
.	2e	.	1cc
.	1d	.	.
2B	.	.	2dd
=28	=28	=28	=28
2.A	2.c	2r	1ee
.	.	1a	.
4G	4B	.	.
2F	2A	.	2dd
2E	[2c	2g	2ee
=29	=29	=29	=29
1D	2c]	1f	1ff
.	2B	.	.
1C	2c	2a	1ee
.	2e	2g	.
=30	=30	=30	=30
1F	2.f	2a	2dd
.	.	2a	1cc
.	4e	.	.
1G	1d	1g	.
.	.	.	2b
=31	=31	=31	=31
1C	4c	2r	[0cc
.	4d	.	.
.	4e	2g	.
.	4f	.	.
1r	2g	2e	.
.	2a	2f	.
=32	=32	=32	=32
1c	1g	1.e	1cc]
2A	1r	.	1r
2B	.	2d	.
=33	=33	=33	=33
1.c	0r	2e	1cc
.	.	4c	.
.	.	4d	.
.	.	4e	2a
.	.	4f	.
2G	.	2g	2b
=34	=34	=34	=34
2.A	1c	2f	1.a
.	.	1e	.
4B	.	.	.
2c	2A	.	.
[2d	2B	2d	2g
=35	=35	=35	=35
4d]	1A	2e	2a
4c	.	.	.
1c	.	2c	2f
.	1G	1d	1g
2B	.	.	.
=36	=36	=36	=36
1c	2.A	2c	0r
.	.	2.cc	.
.	4B	.	.
1F	2c	.	.
.	.	4b	.
.	[2d	4a	.
.	.	4g	.
=37	=37	=37	=37
2D	2d]	2f	0r
2E	1c	2g	.
1D	.	2a	.
.	2B	4g	.
.	.	4f	.
=38	=38	=38	=38
1C	2c	2.e	2r
.	1e	.	2gg
.	.	4f	.
2r	.	2g	2ee
2D	2d	[2a	2ff
=39	=39	=39	=39
2E	2B	4a]	1ee
.	.	4g	.
2C	2c	1g	.
1D	1A	.	1dd
.	.	2f#	.
=40	=40	=40	=40
1G	2G	2g	2r
.	2g	2b	2dd
1r	2f#	2a	2dd
.	2g	2b	2dd
=41	=41	=41	=41
0r	1c	2.cc	4ee
.	.	.	4ff
.	.	.	4gg
.	.	4b	4ee
.	2d	2a	2ff#
.	2e	2g	[2gg
=42	=42	=42	=42
1r	1d	1a	2gg]
.	.	.	2ff#
1c	1e	2g	2gg
.	.	2g	2cc
=43	=43	=43	=43
2B	2d	2g	2dd
2c	2e	2g	2cc
1F	2.f	4cc	2a
.	.	4b	.
.	.	4a	4f
.	4e	4g	4g
=44	=44	=44	=44
2r	2d	4f	4a
.	.	4g	4b
2A	2c	1a	1cc
2F	1d	.	.
2G	.	4g	2b
.	.	4f	.
=45	=45	=45	=45
2.A	[0c	4e	2.cc
.	.	4d	.
.	.	2e	.
4G	.	.	4b
2F	.	2f	2a
2E	.	2g	2g
=46	=46	=46	=46
0F	1c_	2.a	2.f
.	.	4g	4g
.	1c_	1f	1a
=47	=47	=47	=47
0C	0c]	0e	0g
==	==	==	==
*-	*-	*-	*-
!!!CDT: 1525/^1526/-1594/2/2
!!!OCY: Italia
!!!AGN: Mass (Paraphrase)
!!!AST: renaissance, vocal
!!!ASW: Antiphon
!!!PWK: Masses, Book 9
!!!RNB: Cadence finals: G
!!!YOR: Le Opere Complete, v. 25, p. 1
!!!YOO: Rome, Italy: Fratelli Scalera
!!!END: 1992//
!!!EED: John Miller
!!!YEC: Copyright 2000, John Miller
!!!YEN: United States of America
!!!YEM: Rights to all derivative electronic formats reserved.
!!!YEM: Refer to licensing agreement for further details.
!!!YEM: This file must be accompanied by the licensing agreement.
!!!YEM: A copy of the licensing agreement may be found at http://www.music-cog.ohio-state.edu/HumdrumDatabases/Palestrina/license.txt
!!!EMD: converted to Humdrum by Bret Aarden
